assets/Man scientist/Medium/Flat/man_scientist_flat_medium.svg

<svg width="32" height="32" viewBox="0 0 32 32" fill="none" xmlns="http://www.w3.org/2000/svg">
<path d="M9 18.0111C9.38214 17.6957 9.78597 17.4057 10.2089 17.1435L16 17L21.7195 17.1046C22.1685 17.3787 22.5963 17.6841 23 18.0177L24 24L23 30H9L8 24L9 18.0111Z" fill="#E6E6E6"/>
<path d="M16.5 24.3302V30H15.5V24.1998L11.5 17.5L12.8463 15.9579L16 15.5L19.1475 15.9579L20.5 17.5L16.5 24.3302Z" fill="#00A6ED"/>
<path d="M23 18.0279C25.4423 20.0463 27 23.0981 27 26.5101V30.0001H23V18.0279Z" fill="#F4F4F4"/>
<path d="M19.2137 15.988C20.1634 16.2782 21.0587 16.6936 21.8804 17.2149L22.07 19.2102C22.08 19.3302 22 19.4402 21.88 19.4602L21.09 19.6002C20.91 19.6302 20.84 19.8402 20.96 19.9802L21.72 20.8202C21.8 20.9102 21.8 21.0502 21.71 21.1402L16.83 26.1202C16.71 26.2402 16.5 26.1502 16.5 25.9802V22.3702C16.5 22.3302 16.51 22.2902 16.52 22.2602L19.2137 15.988Z" fill="#F4F4F4"/>
<path d="M10.1227 17.2077C10.9442 16.6879 11.8394 16.2741 12.7894 15.9851L15.48 22.2402L15.4851 22.26C15.4931 22.2908 15.5 22.317 15.5 22.3502V25.9602C15.5 26.1402 15.29 26.2202 15.17 26.1002L10.29 21.1202C10.2 21.0302 10.2 20.9002 10.28 20.8002L11.04 19.9702C11.16 19.8402 11.09 19.6202 10.91 19.5902L10.12 19.4502C9.99995 19.4202 9.91995 19.3202 9.93995 19.1902L10.1227 17.2077Z" fill="#F4F4F4"/>
<path d="M9 18.0212V30.0001H5V26.5101C5 23.0906 6.55631 20.038 9 18.0212Z" fill="#F4F4F4"/>
<path d="M27 23C27.55 23 28 23.4103 28 23.9119V26H26V23.9119C26.01 23.4103 26.45 23 27 23Z" fill="#BB806E"/>
<path d="M27.22 20H27V21.4399L25.5 22.5L24 21.4399V20H23.78C23.61 20 23.47 19.7941 23.47 19.5441V19.4559C23.47 19.2059 23.61 19 23.78 19H27.22C27.39 19 27.53 19.2059 27.53 19.4559V19.5441C27.52 19.7941 27.38 20 27.22 20Z" fill="#B4F6FC"/>
<path d="M27 21.4399H24V27.7499H27V21.4399Z" fill="#C3EF3C"/>
<path d="M24.2842 22.3299H24.6983C24.7429 22.3299 24.7835 22.2399 24.7795 22.1299V22.0899C24.7795 21.9799 24.7429 21.8899 24.6983 21.8899H24.2842C24.2395 21.8899 24.203 21.9799 24.203 22.0899V22.1299C24.203 22.2399 24.2395 22.3299 24.2842 22.3299Z" fill="#008463"/>
<path d="M24.2842 24.1199H24.6983C24.7429 24.1199 24.7835 24.0299 24.7795 23.9199V23.8799C24.7795 23.7699 24.7429 23.6799 24.6983 23.6799H24.2842C24.2395 23.6799 24.203 23.7699 24.203 23.8799V23.9199C24.203 24.0299 24.2395 24.1199 24.2842 24.1199Z" fill="#008463"/>
<path d="M23.5091 25.5C23.5182 25.1 23.837 24.75 24.2105 24.75H27.2075C27.6447 24.75 28 25.14 28 25.62V29.13C28 29.61 27.6447 30 27.2075 30H24.2105C23.837 30 23.5182 29.69 23.5091 29.28C23.5 29.01 23.6184 28.77 23.8097 28.63C23.6184 28.5 23.5 28.27 23.5 28.01C23.5 27.75 23.6275 27.52 23.8097 27.39C23.6184 27.26 23.5 27.03 23.5 26.77C23.5 26.51 23.6275 26.28 23.8097 26.15C23.6275 26.01 23.5 25.77 23.5091 25.5Z" fill="#C68D7B"/>
<path d="M16 18.5C14.8932 18.5 14 17.5359 14 16.3413V13.6587C14 12.4641 14.8932 11.5 16 11.5C17.1068 11.5 18 12.4641 18 13.6587V16.3413C18 17.5359 17.1068 18.5 16 18.5Z" fill="#B87A66"/>
<path d="M12.7701 10.5899C12.7701 11.5122 12.0224 12.2599 11.1001 12.2599C10.1777 12.2599 9.43005 11.5122 9.43005 10.5899C9.43005 9.66761 10.1777 8.91992 11.1001 8.91992C12.0224 8.91992 12.7701 9.66761 12.7701 10.5899Z" fill="#BB806E"/>
<path d="M22.56 10.5899C22.56 11.5122 21.8123 12.2599 20.89 12.2599C19.9677 12.2599 19.22 11.5122 19.22 10.5899C19.22 9.66761 19.9677 8.91992 20.89 8.91992C21.8123 8.91992 22.56 9.66761 22.56 10.5899Z" fill="#BB806E"/>
<path d="M15.5553 3C12.7685 3 10.5647 5.40719 10.7623 8.24748L11.1576 13.9381C11.3256 15.7209 12.7092 17 14.3892 17H17.6108C19.2908 17 20.6744 15.7209 20.8424 13.9381L21.2377 8.24748C21.4353 5.41727 19.2315 3 16.4447 3H15.5553V3Z" fill="#C68D7B"/>
<path d="M21.183 4.3917L20.7647 4.1817C20.4729 4.0317 20.2005 3.8317 19.967 3.5917L19.1499 2.7517C18.537 2.1217 17.6323 1.9117 16.8151 2.2017C16.2898 2.3917 15.7061 2.3917 15.1808 2.2017C14.4707 1.8317 13.6049 1.9817 13.0309 2.5617L12.0386 3.5817C11.8052 3.8217 11.5328 4.0217 11.2312 4.1817L10.8226 4.3917C10.0541 4.7917 9.62608 5.6617 9.78173 6.5317L10.3362 9.6617C10.3946 9.9717 10.6573 10.2017 10.9588 10.2117C10.9588 10.2117 10.9005 9.3217 10.8615 8.7517C10.8421 8.4617 10.9588 8.1717 11.1728 7.9717L11.3577 7.8017C11.6106 7.5717 11.7468 7.2417 11.7468 6.9017V6.0217C11.7468 5.7717 11.9122 5.5517 12.1457 5.4917C12.778 5.3317 14.1302 5.0517 15.998 5.0517C17.8658 5.0517 19.218 5.3317 19.8503 5.4917C20.0837 5.5517 20.2491 5.7717 20.2491 6.0217V6.9017C20.2491 7.2417 20.395 7.5717 20.6382 7.8017L20.8328 7.9817C21.0468 8.1817 21.1636 8.4617 21.1441 8.7617C21.1052 9.3317 21.0468 10.2117 21.0468 10.2117C21.3484 10.1917 21.6013 9.9717 21.6597 9.6617L22.2142 6.5317C22.3796 5.6617 21.9613 4.7917 21.183 4.3917Z" fill="#593B39"/>
<path d="M15.6541 10.2897L15.1583 12.0282C15.0554 12.384 15.2986 12.75 15.6447 12.75H16.3743C16.7204 12.75 16.9636 12.384 16.8607 12.0282L16.365 10.2897C16.2621 9.90342 15.7663 9.90342 15.6541 10.2897Z" fill="#AB6A55"/>
<path d="M18.7244 6.5H13.316C11.7809 6.5 10.5102 7.71664 10.5 9.24497C10.5 10.7633 11.7504 12 13.2855 12C14.2513 12 15.1053 11.5073 15.6034 10.7633C15.7966 10.4817 16.2134 10.4817 16.4065 10.7633C16.925 11.5274 17.8094 12.0201 18.8159 11.9899C20.2595 11.9397 21.4794 10.7029 21.4998 9.27514C21.5201 7.75686 20.2697 6.5 18.7244 6.5Z" fill="#BB806E"/>
<path d="M12.3099 10.5016C12.4599 9.89164 13.0199 9.43164 13.6799 9.43164C14.3699 9.43164 14.9399 9.92164 15.0699 10.5716C15.0999 10.7116 14.9899 10.8416 14.8399 10.8416H12.5799C12.3999 10.8416 12.2599 10.6716 12.3099 10.5016Z" fill="white"/>
<path d="M19.9 10.5016C19.75 9.89164 19.19 9.43164 18.53 9.43164C17.84 9.43164 17.27 9.92164 17.14 10.5716C17.11 10.7116 17.22 10.8416 17.37 10.8416H19.63C19.81 10.8416 19.94 10.6816 19.9 10.5016Z" fill="white"/>
<path d="M12.98 10.6117C12.98 10.1117 13.39 9.70166 13.89 9.70166C14.39 9.70166 14.79 10.1017 14.79 10.6017C14.79 10.6917 14.78 10.7717 14.76 10.8517H13.01C12.99 10.7717 12.98 10.6917 12.98 10.6117Z" fill="#7D4533"/>
<path d="M19.2299 10.6117C19.2299 10.1117 18.8199 9.70166 18.3199 9.70166C17.8199 9.70166 17.4199 10.1017 17.4199 10.6117C17.4199 10.6917 17.4299 10.7717 17.4499 10.8517H19.1999C19.2199 10.7717 19.2299 10.6917 19.2299 10.6117Z" fill="#7D4533"/>
<path d="M13.89 10.0815C14.18 10.0815 14.41 10.3115 14.41 10.6015C14.41 10.6915 14.38 10.7715 14.35 10.8415H13.43C13.39 10.7715 13.37 10.6915 13.37 10.6015C13.37 10.3115 13.6 10.0815 13.89 10.0815Z" fill="black"/>
<path d="M18.3199 10.0815C18.0299 10.0815 17.7999 10.3115 17.7999 10.6015C17.7999 10.6915 17.8299 10.7715 17.8599 10.8415H18.7799C18.8199 10.7715 18.8399 10.6915 18.8399 10.6015C18.8399 10.3115 18.6099 10.0815 18.3199 10.0815Z" fill="black"/>
<path d="M13.7399 10.2518C13.7399 10.3402 13.6683 10.4118 13.5799 10.4118C13.4916 10.4118 13.4199 10.3402 13.4199 10.2518C13.4199 10.1634 13.4916 10.0918 13.5799 10.0918C13.6683 10.0918 13.7399 10.1634 13.7399 10.2518Z" fill="white"/>
<path d="M18.2 10.2518C18.2 10.3402 18.1284 10.4118 18.04 10.4118C17.9516 10.4118 17.88 10.3402 17.88 10.2518C17.88 10.1634 17.9516 10.0918 18.04 10.0918C18.1284 10.0918 18.2 10.1634 18.2 10.2518Z" fill="white"/>
<path d="M19.24 8.93176C19.35 9.00177 19.46 9.04177 19.58 9.04177C19.75 9.04177 19.91 8.97177 20.01 8.82177C20.2 8.58177 20.15 8.23177 19.91 8.04177C19.88 8.01177 19.04 7.37177 17.82 7.52177C17.51 7.56177 17.29 7.84177 17.33 8.14176C17.37 8.45177 17.64 8.67177 17.95 8.63177C18.6767 8.54456 19.1781 8.88922 19.2358 8.92891C19.2377 8.93018 19.24 8.93176 19.24 8.93176Z" fill="#593B39"/>
<path d="M12.19 8.82174C12.29 8.96174 12.46 9.04173 12.63 9.04173C12.74 9.04173 12.86 9.00173 12.96 8.93173C12.98 8.91173 13.49 8.54174 14.25 8.63174C14.56 8.66174 14.83 8.44173 14.87 8.14173C14.9 7.83173 14.68 7.56173 14.38 7.52173C13.17 7.38173 12.32 8.01173 12.29 8.04173C12.05 8.23173 12 8.57174 12.19 8.82174Z" fill="#593B39"/>
<path d="M16.0005 13.7057C15.45 13.7057 14.9301 13.5669 14.4918 13.3212C14.3389 13.2358 14.186 13.4174 14.2777 13.5669C14.6447 14.1542 15.2767 14.5493 16.0005 14.5493C16.7243 14.5493 17.3563 14.1542 17.7233 13.5669C17.8151 13.4174 17.652 13.2465 17.5093 13.3212C17.0607 13.5669 16.551 13.7057 16.0005 13.7057Z" fill="#990838"/>
<path d="M10.2363 9.24325C10.2475 7.56394 11.6421 6.23633 13.316 6.23633H18.7244C20.4137 6.23633 21.7858 7.61045 21.7635 9.2787L21.7635 9.27892C21.7411 10.8493 20.4072 12.1984 18.8251 12.2535L18.8238 12.2536C17.724 12.2865 16.756 11.7475 16.1888 10.912C16.1005 10.7839 15.9101 10.7838 15.8215 10.9115C15.2763 11.7249 14.3421 12.2637 13.2855 12.2637C11.6076 12.2637 10.2363 10.9116 10.2363 9.245V9.24325L10.2363 9.24325ZM10.7637 9.24588C10.7642 10.6154 11.8937 11.7363 13.2855 11.7363C14.1599 11.7363 14.9331 11.2905 15.3843 10.6166L15.386 10.6141L15.386 10.6141C15.6839 10.1799 16.3261 10.1799 16.624 10.6141L16.6248 10.6152C17.0945 11.3075 17.8949 11.7535 18.8074 11.7264C20.1121 11.6806 21.2177 10.5565 21.2361 9.27163C21.2544 7.90332 20.1256 6.76373 18.7244 6.76373H13.316C11.9201 6.76373 10.7734 7.86892 10.7637 9.24588Z" fill="#9B9B9B"/>
</svg>

<svg xmlns="http://www.w3.org/2000/svg" width="32" height="32" fill="none"><path fill="#E6E6E6" d="M9 18.011c.382-.315.786-.605 1.209-.867L16 17l5.72.105c.449.274.876.58 1.28.913L24 24l-1 6H9l-1-6 1-5.989Z"/><path fill="#00A6ED" d="M16.5 24.33V30h-1v-5.8l-4-6.7 1.346-1.542L16 15.5l3.148.458L20.5 17.5l-4 6.83Z"/><path fill="#F4F4F4" d="M23 18.028a10.98 10.98 0 0 1 4 8.482V30h-4V18.028ZM19.214 15.988c.95.29 1.845.706 2.666 1.227l.19 1.995c.01.12-.07.23-.19.25l-.79.14c-.18.03-.25.24-.13.38l.76.84c.08.09.08.23-.01.32l-4.88 4.98c-.12.12-.33.03-.33-.14v-3.61c0-.04.01-.08.02-.11l2.694-6.272ZM10.123 17.208c.821-.52 1.716-.934 2.666-1.223l2.691 6.255.005.02c.008.03.015.057.015.09v3.61c0 .18-.21.26-.33.14l-4.88-4.98c-.09-.09-.09-.22-.01-.32l.76-.83a.23.23 0 0 0-.13-.38l-.79-.14c-.12-.03-.2-.13-.18-.26l.183-1.982ZM9 18.021v11.98H5v-3.49c0-3.42 1.556-6.473 4-8.49Z"/><path fill="#BB806E" d="M27 23c.55 0 1 .41 1 .912V26h-2v-2.088c.01-.502.45-.912 1-.912Z"/><path fill="#B4F6FC" d="M27.22 20H27v1.44l-1.5 1.06-1.5-1.06V20h-.22c-.17 0-.31-.206-.31-.456v-.088c0-.25.14-.456.31-.456h3.44c.17 0 .31.206.31.456v.088c-.01.25-.15.456-.31.456Z"/><path fill="#C3EF3C" d="M27 21.44h-3v6.31h3v-6.31Z"/><path fill="#008463" d="M24.284 22.33h.414c.045 0 .085-.09.081-.2v-.04c0-.11-.036-.2-.08-.2h-.415c-.044 0-.081.09-.081.2v.04c0 .11.037.2.081.2ZM24.284 24.12h.414c.045 0 .085-.09.081-.2v-.04c0-.11-.036-.2-.08-.2h-.415c-.044 0-.081.09-.081.2v.04c0 .11.037.2.081.2Z"/><path fill="#C68D7B" d="M23.51 25.5c.008-.4.327-.75.7-.75h2.997c.438 0 .793.39.793.87v3.51c0 .48-.355.87-.793.87H24.21c-.373 0-.692-.31-.7-.72-.01-.27.108-.51.3-.65a.74.74 0 0 1-.31-.62c0-.26.128-.49.31-.62a.74.74 0 0 1-.31-.62c0-.26.128-.49.31-.62a.79.79 0 0 1-.3-.65Z"/><path fill="#B87A66" d="M16 18.5c-1.107 0-2-.964-2-2.159V13.66c0-1.195.893-2.159 2-2.159s2 .964 2 2.159v2.682c0 1.195-.893 2.159-2 2.159Z"/><path fill="#BB806E" d="M12.77 10.59a1.67 1.67 0 1 1-3.34 0 1.67 1.67 0 0 1 3.34 0ZM22.56 10.59a1.67 1.67 0 1 1-3.34 0 1.67 1.67 0 0 1 3.34 0Z"/><path fill="#C68D7B" d="M15.555 3c-2.787 0-4.99 2.407-4.793 5.247l.396 5.691C11.326 15.721 12.709 17 14.389 17h3.222c1.68 0 3.063-1.28 3.231-3.062l.396-5.69C21.435 5.417 19.232 3 16.445 3h-.89Z"/><path fill="#593B39" d="m21.183 4.392-.418-.21a3.086 3.086 0 0 1-.798-.59l-.817-.84a2.212 2.212 0 0 0-2.335-.55c-.525.19-1.109.19-1.634 0-.71-.37-1.576-.22-2.15.36l-.992 1.02c-.234.24-.506.44-.808.6l-.408.21a2.015 2.015 0 0 0-1.041 2.14l.554 3.13c.059.31.321.54.623.55l-.098-1.46a.987.987 0 0 1 .312-.78l.185-.17c.253-.23.389-.56.389-.9v-.88c0-.25.165-.47.399-.53.632-.16 1.984-.44 3.852-.44 1.868 0 3.22.28 3.852.44.234.06.4.28.4.53v.88c0 .34.145.67.388.9l.195.18c.214.2.33.48.311.78l-.097 1.45a.668.668 0 0 0 .613-.55l.554-3.13a1.982 1.982 0 0 0-1.031-2.14Z"/><path fill="#AB6A55" d="m15.654 10.29-.496 1.738c-.103.356.14.722.487.722h.73c.345 0 .589-.366.486-.722l-.496-1.738c-.103-.387-.599-.387-.71 0Z"/><path fill="#BB806E" d="M18.724 6.5h-5.408c-1.535 0-2.806 1.217-2.816 2.745 0 1.518 1.25 2.755 2.786 2.755.965 0 1.82-.493 2.317-1.237a.487.487 0 0 1 .804 0 2.795 2.795 0 0 0 2.409 1.227c1.444-.05 2.663-1.287 2.684-2.715.02-1.518-1.23-2.775-2.776-2.775Z"/><path fill="#fff" d="M12.31 10.502c.15-.61.71-1.07 1.37-1.07.69 0 1.26.49 1.39 1.14.03.14-.08.27-.23.27h-2.26c-.18 0-.32-.17-.27-.34ZM19.9 10.502c-.15-.61-.71-1.07-1.37-1.07-.69 0-1.26.49-1.39 1.14-.03.14.08.27.23.27h2.26c.18 0 .31-.16.27-.34Z"/><path fill="#7D4533" d="M12.98 10.612c0-.5.41-.91.91-.91s.9.4.9.9c0 .09-.01.17-.03.25h-1.75a.986.986 0 0 1-.03-.24ZM19.23 10.612c0-.5-.41-.91-.91-.91s-.9.4-.9.91c0 .08.01.16.03.24h1.75c.02-.08.03-.16.03-.24Z"/><path fill="#000" d="M13.89 10.082a.516.516 0 0 1 .46.76h-.92a.516.516 0 0 1 .46-.76ZM18.32 10.082a.516.516 0 0 0-.46.76h.92a.516.516 0 0 0-.46-.76Z"/><path fill="#fff" d="M13.74 10.252a.16.16 0 1 1-.32 0 .16.16 0 0 1 .32 0ZM18.2 10.252a.16.16 0 1 1-.32 0 .16.16 0 0 1 .32 0Z"/><path fill="#593B39" d="M19.24 8.932c.11.07.22.11.34.11.17 0 .33-.07.43-.22.19-.24.14-.59-.1-.78-.03-.03-.87-.67-2.09-.52a.56.56 0 0 0 .13 1.11 1.917 1.917 0 0 1 1.29.3ZM12.19 8.822c.1.14.27.22.44.22.11 0 .23-.04.33-.11.02-.02.53-.39 1.29-.3.31.03.58-.19.62-.49a.568.568 0 0 0-.49-.62c-1.21-.14-2.06.49-2.09.52-.24.19-.29.53-.1.78Z"/><path fill="#990838" d="M16 13.706c-.55 0-1.07-.14-1.508-.385-.153-.085-.306.096-.214.246.367.587.999.982 1.722.982.724 0 1.356-.395 1.723-.982.092-.15-.071-.32-.214-.246a3.118 3.118 0 0 1-1.509.385Z"/><path fill="#9B9B9B" d="M10.236 9.243c.011-1.68 1.406-3.007 3.08-3.007h5.408c1.69 0 3.062 1.374 3.04 3.043-.023 1.57-1.357 2.92-2.939 2.975h-.001a3.06 3.06 0 0 1-2.635-1.342.224.224 0 0 0-.367 0 3.052 3.052 0 0 1-2.536 1.352c-1.678 0-3.05-1.352-3.05-3.019v-.002Zm.528.003c0 1.37 1.13 2.49 2.522 2.49.874 0 1.647-.446 2.098-1.12l.002-.002a.751.751 0 0 1 1.238 0v.001a2.532 2.532 0 0 0 2.183 1.111c1.305-.045 2.41-1.17 2.43-2.454.017-1.369-1.111-2.508-2.513-2.508h-5.408c-1.396 0-2.543 1.105-2.552 2.482Z"/></svg>
